X: 03067
T: PINKY'S JIG
C: Bob McQuillen 22 Mar 77
B: Bob's Note Book 03 #67
R: jig
%D:1977
Z: 2020 John Chambers <jc:trillian.mit.edu>
M: 6/8
L: 1/8
K: D
FG \
| AFA DFA | BGB AFD | Bcd Ade | fgf eFG |\
| AFA DFA | BGB AFD | Bcd Agf | edc d  :|
|: FG \
| Add Bde | dAG FED | Add Bcd | ecA Ade |\
| fdf ecA | dBd AFD | GBe FAd | cBc d  :|
%%begintext align
%% With love always to a fun chick,
%% Pinky Fiske of Temple, H.H.
%%endtext

%%sep 1 1 500

%%sep 1 1 500

